svgs/po_pixel.svg

﻿<svg width="192" height="192" viewBox="0 0 192 192" fill="none" xmlns="http://www.w3.org/2000/svg">
<circle cx="96" cy="96" r="74" stroke="black" stroke-width="12"/>
<path d="M119.228 70.748L127.239 55.9285C135.954 61.0914 145.335 77.3392 145.448 87.4683L128.609 86.9957L129.161 103.304L146 102.832C145.886 112.961 136.506 129.209 127.791 134.371L119.78 119.552L105.932 128.184L114.761 142.531C105.932 147.497 87.1712 147.497 78.3423 142.531L87.1712 128.184L72.7716 120.508L64.7613 135.327C56.046 130.164 46.6653 113.917 46.5518 103.787L63.391 104.26L62.8392 87.9515L46 88.424C46.1135 78.2949 55.4942 62.0472 64.2095 56.8843L72.2198 71.7037L86.0676 63.0715L77.2387 48.7247C86.0676 43.7584 104.829 43.7584 113.658 48.7247L104.829 63.0715L119.176 70.7968" stroke="black" stroke-width="10" stroke-linecap="round" stroke-linejoin="round"/>
</svg>

<svg xmlns="http://www.w3.org/2000/svg" width="192" height="192" fill="none" stroke="#000" viewBox="0 0 192 192"><circle cx="96" cy="96" r="74" stroke-width="12"/><path stroke-linecap="round" stroke-linejoin="round" stroke-width="10" d="m119.228 70.748 8.011-14.82c8.715 5.163 18.096 21.411 18.209 31.54l-16.839-.472.552 16.308 16.839-.472c-.114 10.129-9.494 26.377-18.209 31.539l-8.011-14.819-13.848 8.632 8.829 14.347c-8.829 4.966-27.59 4.966-36.419 0l8.83-14.347-14.4-7.676-8.01 14.819c-8.716-5.163-18.097-21.41-18.21-31.54l16.839.473-.552-16.309L46 88.424c.114-10.13 9.494-26.377 18.21-31.54l8.01 14.82 13.848-8.632-8.83-14.347c8.83-4.967 27.591-4.967 36.42 0l-8.829 14.346 14.347 7.726"/></svg>
